X: 11
T: PICKING OF STICKS
B: "FIFTY OLD ENGLISH FOLK DANCE AIRS", Edgar H. Hunt ed., Schott & Co. Ltd. pub., London 1939
Z: 2004-2014 John Chambers <jc:trillian.mit.edu>
M: 6/8
L: 1/8
K: Gmix	% Probably should be G major
G |\
B>cd d>cd | (c2A) A2A | A>Bc c>dc | (B2G) G2G |\
B>cd d>cd | (c2A) A2A | A>Bc c>dc | (B2G) G2 :|

%%sep 1 1 500
%%sep 1 1 500
